X: 9954
T: Devil And The Dirk, The
R: reel
M: 4/4
K: Dmajor
|:(3DDD FD AD d2|ADFD CEEF|(3DDD FD AD d2|1 AFGE FDDE:|2 AFGE FDDc'||
|:d'ddd' c'ccc'|bBBb aAAa|gGGg fFFf|eBed ceac'|
d'ddd' c'ccc'|bBBb aAAa|geag fad'b|1 afge fddc':|2 afge fdd2||

